X: 18
T: Be merry and Wise
R: reel
M: C|
L: 1/8
Z: 2010 John Chambers <jc:trillian.mit.edu>
B: John Johnson ed. "Twenty Four Country Dances", p.81 London 1766
K: F
   c | BAGF c2BA | Bcde f2af | gecA B2AG | BbAa G3 :|
|: B | Aceg f3a  | gecA B2B2 | Aceg f3d  | cBAG F3 :|


%%sep 5 1 500

